X: 22771
T: Långdans Från Sollerön
R: waltz
M: 3/4
K: Dminor
V:1
d2 f2 e2|d4 d2|:"A"A2 ^c2 "Dm"d2|"A"e3 g "Dm"f2|d2 fe "A7"d^c|
"Dm"d3 ^c "A"A2-|A2 ^c2 "Dm"d2|"Gdim"e3 "A7"g "Dm"f2|d2 "Bb"fe "A7(b9)"d^c|"Dm"d6:|
|:"Dm"a2 "A"g2 e2|g3 e "Dm"f2|f2 a2 "Gm"g2|"Gdim"e2 "A7"ge "Dm"f2|"Bb"d2 "A"f2 e2|"Dm"d4 d2:|
V:2
[B2D2-] [D2A2] [BA-][EA]|[A4F4] [D2A2]|:AG [A2E2] [FA]G|A^c ec d2|F2 DE FG|
F2 B2 [D-A][GD]|F2 [E2A2-] [F2A2]|[B2F2] A^c d2|F2 D2 B2|AG FE D2:|
|:[A2f2] [A2e2] ^c2|A^c ec d2|DE F2 B2-|B2 A^c d2|[B2D2-] [D2A2] [GA-] [AE]|[F4A4] [D2A2]:|
V:3
z6|z6|:D2 E2 F2|A4 A2|A2 F2 A2|
D4 FE|D2 E2 D2|G2 A4|A2 B2 G2|F2 A2 F2:|
|:D2 E2 A2|E4 A2|A3 ^c d2|G2 A4|F2 E2 ^C2|D6:|

